X: 199
T: Tripping Down The Stairs
R: reel
M: 4/4
L: 1/8
K: Gmaj
GA|BG~G2 BGAc | BGDC B,CDC | B,G, B,D ~E3G | FD EF G2GA|
BG~G2 BGAc | BGDC B,CDC | (3B,A,G, B,D ECEG |1 (3FED EF G2 :|2 FDEF G2ga ||
 bg~g2 egde | cdBc ABGA | FGEF DECD | B,CA,B, G,A,B,D |
G3B dBGB | AB cA BGDC | (3B,A,G, B,D ~E3G |1 FD EF G2ga :|2 (3FED EF G2GA ||

